X:1
T:My Precious Bible
T:William Howard Doane
T:My Precious Bible
T:Public Domain
T:Public Domain
T:Public Domain
C:William Howard Doane
Z:Public Domain
%%score ( 1 2 ) ( 3 4 )
L:1/8
M:4/4
K:Eb
V:1 treble 
V:2 treble 
V:3 bass 
V:4 bass 
V:1
 [GB]2 | [GB]2 [EG]2 [EG]2 [EG]2 | ([EG]>[FA]) [GB]4 [GB]2 | [DF]2 [EG]2 [FA]2 [GB]2 | %4
w: 1.~My|Bi- ble, pre- cious|trea- * sure! Worth|more than gems or|
w: 2.~For|God’s ex- ceed- ing|glo- * ry, His|ver- y life is|
w: 3.~I|read and weep and|won- * der, How|God, a ho- ly|
w: 4.~O,|mar- ve- lous re-|la- * tion! O,|ten- der, pi- tying|
 [FA]6 [GB]2 | [GB]2 [EG]2 [EG]2 [EG]2 | ([EG]>[FA]) [GB]4 [GB]2 | [DF]2 [EG]2 [FA]2 [DF]2 | %8
w: gold; Be|it my choic- est|trea- * sure Thy|cov- ers to un-|
w: love; All|through His sac- red|sto- * ry Its|splen- dor is in-|
w: God, Could|still the law’s wild|thun- * der, With|mer- cy, gen- tle|
w: love! Of|saints the ad- mi-|ra- * tion, The|song of host a-|
 E6 E2 | E2 [Ac]2 [Ac]2 [Ac]2 | [GB]4 [Ge]2 [EG]2 | [GB]2 [FA]2 [EG]2 [DF]2 | [EG]6 E2 | %13
w: fold. Thy|lum- ined pag- es|God’s own glo-|ry shine; Down through|the long,|
w: wove. It|man’s cre- a- tion,|O! more rad-|iant still, In His|com- plete|
w: word. How|pale trans- gres- sor,|low with pain|and fear, And make|him heav’n’s|
w: bove. Be|wond- rous sto- ry,|dai- ly, fresh|de- light, And in|this flood|
 E2 [Ac]2 [Ac]2 [Ac]2 | [GB]4 [Ge]2 [EG]2 | [GB]2 [FA]2 [EG]2 [DF]2 | E6 ||"^Refrain" [GB]2 | %18
w: ag- es, It gleams|ev- ’ry line.||||
w: va- tion, From sin|mor- tal ill.|My pre- cious Bi-|ble!|a|
w: ses- sor, With Christ,|Son, an heir.||||
w: glo- ry, My soul|ev- er bright.||||
 [GB]4 [EG]4 | ([EG]>[FA]) [GB]6 | [Ac]2 [ce]2 [Bd]2 [Ac]2 | [GB]6 [GB]2 | %22
w: ||||
w: book di-|vine, * Where|heav- enly truth and|mer- cy|
w: ||||
w: ||||
 [Ac]2 [Ac]2 [Ac]2 [Ae]2 | [GB]2 [GB]2 [GB]2 [EG]2 | [GB]2 [FA]2 [EG]2 [DF]2 | [EG]2 [FA]2 [GB]4 | %26
w: ||||
w: shine, And wis- dom|speaks in ev- ’ry|line, Speaks to me,|speaks to me,|
w: ||||
w: ||||
 [Ac]2 [Ac]2 [Ae]4 | [GB]2 [GB]2 [EG]4 | [EG]2 E2 [EG]2 [DF]2 | E6 |] %30
w: ||||
w: Speaks good news|to me. *|||
w: ||||
w: ||||
V:2
 x2 | x8 | x8 | x8 | x8 | x8 | x8 | x8 | E6 E2 | E2 x6 | x8 | x8 | x6 E2 | E2 x6 | x8 | x8 | E6 || %17
w: ||||||||fair il-|With|||long|in||||
w: ||||||||glows in|And|||sal-|and|||’tis|
w: ||||||||raise the|Bow|||pos-|the||||
w: ||||||||this my|My|||of|be||||
 x2 | x8 | x8 | x8 | x8 | x8 | x8 | x8 | x8 | x8 | x8 | x2 E2 x4 | E6 |] %30
w: |||||||||||||
w: |||||||||||||
w: |||||||||||||
w: |||||||||||||
V:3
 [E,E]2 | [E,E]2 [E,B,]2 [E,B,]2 [E,B,]2 | [E,B,]2 [E,E]4 [E,E]2 | %3
 [B,,B,]2 [B,,B,]2 [B,,B,]2 [B,,B,]2 | [B,,B,]6 [E,E]2 | [E,E]2 [E,B,]2 [E,B,]2 [E,B,]2 | %6
 [E,B,]2 [E,E]4 [E,E]2 | [B,,B,]2 [B,,B,]2 [B,,B,]2 [B,,A,]2 | [E,G,]6 [E,G,]2 | %9
 (A,D) [A,E]2 [A,E]2 [A,E]2 | [E,E]4 [E,B,]2 [E,B,]2 | [B,,B,]2 [B,,B,]2 [B,,B,]2 [B,,B,]2 | %12
 [E,B,]6 [E,B,]2 | (A,C) [A,E]2 [A,E]2 [A,E]2 | [E,E]4 [E,B,]2 [E,B,]2 | %15
 [B,,B,]2 [B,,B,]2 [B,,B,]2 [B,,A,]2 | [E,G,]6 || [E,E]2 | [E,E]4 [E,B,]4 | [E,B,]4 [E,E]4 | %20
 [A,E]2 [A,E]2 [A,E]2 [A,E]2 | [E,E]6 [E,E]2 | [A,E]2 [A,E]2 [A,E]2 [A,C]2 | %23
 [E,E]2 [E,E]2 [E,E]2 [E,B,]2 | [B,,B,]2 [B,,B,]2 [B,,B,]2 [B,,B,]2 | [E,B,]2 [E,B,]2 [E,E]4 | %26
 [A,E]2 [A,E]2 [A,C]4 | [E,E]2 [E,E]2 [E,B,]4 | [B,,B,]2 [B,,B,]2 [B,,B,]2 [B,,B,]2 | [E,G,]6 |] %30
V:4
 x2 | x8 | x8 | x8 | x8 | x8 | x8 | x8 | x8 | A,2 x6 | x8 | x8 | x8 | A,2 x6 | x8 | x8 | x6 || x2 | %18
 x8 | x8 | x8 | x8 | x8 | x8 | x8 | x8 | x8 | x8 | x8 | x6 |] %30

